X:435
M:C|
L:1/8
K:D
c|d2 AG FGAF|Geed cABc|d2 AG FGAg|faeg fdd:|
|:g|fdad bdag|fdaf geeg|1fdad bdaf|geag fdd:|2 fdcd BdAG|

